svg/question_triangle_positive.svg

<?xml version="1.0" encoding="UTF-8" standalone="no"?>
<!-- Created with Inkscape (http://www.inkscape.org/) -->
<svg id="svg8" xmlns:rdf="http://www.w3.org/1999/02/22-rdf-syntax-ns#" xmlns="http://www.w3.org/2000/svg" xmlns:osb="http://www.openswatchbook.org/uri/2009/osb" height="48" width="48" version="1.1" xmlns:cc="http://creativecommons.org/ns#" viewBox="0 0 12.7 12.7" xmlns:dc="http://purl.org/dc/elements/1.1/">
 <title id="title4753">UIO-icon</title>
 <metadata id="metadata5">
  <rdf:RDF>
   <cc:Work rdf:about="">
    <dc:format>image/svg+xml</dc:format>
    <dc:type rdf:resource="http://purl.org/dc/dcmitype/StillImage"/>
    <dc:title>UIO-icon</dc:title>
    <dc:creator>
     <cc:Agent>
      <dc:title>Joaquín Urbano</dc:title>
     </cc:Agent>
    </dc:creator>
    <dc:rights>
     <cc:Agent>
      <dc:title>GPL</dc:title>
     </cc:Agent>
    </dc:rights>
   </cc:Work>
  </rdf:RDF>
 </metadata>
 <g id="layer1" transform="translate(0,-284.3)" fill="#333">
  <path id="path879" d="m24 4-20 40h40zm0.083984 14.281c1.9409 0 3.451 0.52478 4.5293 1.5723 1.0886 1.0372 1.6328 2.4636 1.6328 4.2812 0 1.7971-0.83245 3.5687-2.4961 5.3145l-1.6777 1.6641c-0.74967 0.83182-1.125 2.0289-1.125 3.5898h-2.8496c0.020539-1.2221 0.15928-2.1879 0.41602-2.8965 0.25674-0.70859 0.77957-1.4948 1.5703-2.3574l2.0195-2.0781c0.86263-0.9756 1.293-2.0232 1.293-3.1426 0-1.0783-0.28284-1.9214-0.84766-2.5273-0.56482-0.61617-1.3866-0.92383-2.4648-0.92383-1.0475 0-1.8887 0.27748-2.5254 0.83203s-0.95508 1.2979-0.95508 2.2324h-2.8496c0.020539-1.6636 0.61104-3.0029 1.7715-4.0195 1.172-1.027 2.691-1.541 4.56-1.541zm-0.42969 19.672c0.55455 0 0.97417 0.15821 1.2617 0.47656 0.28754 0.30808 0.43164 0.69413 0.43164 1.1562 0 0.46212-0.1441 0.84621-0.43164 1.1543-0.288 0.298-0.707 0.448-1.262 0.448-0.55455 0-0.97613-0.14945-1.2637-0.44727-0.27727-0.30808-0.41602-0.69217-0.41602-1.1543 0-0.46212 0.13874-0.84817 0.41602-1.1562 0.28754-0.31835 0.70912-0.47656 1.2637-0.47656z" transform="matrix(.26458 0 0 .26458 0 284.3)"/>
 </g>
</svg>

<svg width="48" height="48" viewBox="0 0 48 48" fill="none" xmlns="http://www.w3.org/2000/svg">
<path d="M23.9997 4L4 43.9995H43.9995L23.9997 4ZM24.0837 18.2808C26.0246 18.2808 27.5347 18.8056 28.613 19.8531C29.7016 20.8903 30.2458 22.3167 30.2458 24.1342C30.2458 25.9313 29.4133 27.7029 27.7497 29.4487L26.072 31.1128C25.3223 31.9446 24.947 33.1416 24.947 34.7025H22.0975C22.118 33.4804 22.2567 32.5146 22.5135 31.8061C22.7702 31.0975 23.293 30.3113 24.0838 29.4487L26.1032 27.3706C26.9658 26.395 27.3962 25.3474 27.3962 24.228C27.3962 23.1498 27.1134 22.3067 26.5486 21.7008C25.9837 21.0846 25.162 20.777 24.0838 20.777C23.0363 20.777 22.1951 21.0544 21.5584 21.609C20.9217 22.1635 20.6034 22.9069 20.6034 23.8414H17.7538C17.7743 22.1778 18.3648 20.8385 19.5253 19.8219C20.6973 18.7949 22.2162 18.2809 24.0852 18.2809L24.0837 18.2808ZM23.654 37.9526C24.2086 37.9526 24.6282 38.1108 24.9157 38.4291C25.2033 38.7372 25.3474 39.1232 25.3474 39.5853C25.3474 40.0474 25.2033 40.4315 24.9157 40.7396C24.6277 41.0376 24.2087 41.1876 23.6537 41.1876C23.0992 41.1876 22.6776 41.0381 22.3901 40.7403C22.1128 40.4323 21.974 40.0482 21.974 39.586C21.974 39.1239 22.1128 38.7379 22.3901 38.4299C22.6776 38.1115 23.0992 37.9533 23.6537 37.9533L23.654 37.9526Z" fill="#333333"/>
</svg>
